material/.icons/material/nature-people.svg

<svg xmlns="http://www.w3.org/2000/svg" viewBox="0 0 24 24"><path d="M4.5 11A1.5 1.5 0 006 9.5 1.5 1.5 0 004.5 8 1.5 1.5 0 003 9.5 1.5 1.5 0 004.5 11m17.67-1.83c0-3.87-3.13-7-7-7a7 7 0 00-7 7c0 3.47 2.52 6.33 5.83 6.89V20H6v-3h1v-4a1 1 0 00-1-1H3a1 1 0 00-1 1v4h1v5h16v-2h-3v-3.88a7 7 0 006.17-6.95z"/></svg>

<?xml version="1.0" encoding="UTF-8"?><!DOCTYPE svg PUBLIC "-//W3C//DTD SVG 1.1//EN" "http://www.w3.org/Graphics/SVG/1.1/DTD/svg11.dtd"><svg xmlns="http://www.w3.org/2000/svg" xmlns:xlink="http://www.w3.org/1999/xlink" version="1.1" id="mdi-nature-people" width="24" height="24" viewBox="0 0 24 24"><path d="M4.5,11A1.5,1.5 0 0,0 6,9.5A1.5,1.5 0 0,0 4.5,8A1.5,1.5 0 0,0 3,9.5A1.5,1.5 0 0,0 4.5,11M22.17,9.17C22.17,5.3 19.04,2.17 15.17,2.17A7,7 0 0,0 8.17,9.17C8.17,12.64 10.69,15.5 14,16.06V20H6V17H7V13A1,1 0 0,0 6,12H3A1,1 0 0,0 2,13V17H3V22H19V20H16V16.12C19.47,15.71 22.17,12.76 22.17,9.17Z" /></svg>
